X:845
T:Micho Russell's quadrille
R:Quadrille
D:Cathy Custy, An Ceolto/ir Fa/nach
S:IRTrad ??
Z:Transcription:??, chords:Mike Long
M:12/8
L:1/8
K:G
A|\
"G"B2B "D"A2A D2F A3|"G"B2B "D"A2B "G"d2d "C"e2d|"G"B2B "D"ABA D2F A3|\
"C"BAB "D"edB "G"G3 G2:|
|:D|\
"G"GBd g2g "D"f2f A3|"C"ABd "D"e2d "G"B3 B2D|"G"GBd g2g "D"f2f A3|\
"C"ABd "D"edB "G"G3 G2:|
